X: 34393
T: Richard Brennan's
R: jig
M: 6/8
K: Dmajor
|:A,2F FED|FAF FEF|DFA dAF|1 A,CE A,CE|2 A,CE GFE ]
~F3 FED|FGF FED|DFA dFE|1 DCE DCB,:|2 DCE D2g||
|:fed edc|dcB AFA|fed edc|dfb a2g|
~f3 edc|dcd AFA|DFA dFE|DCE D3:|

